src/assets/user-placeholder.svg

<svg width="256px" height="256px" viewBox="2 2 20 20" fill="none" xmlns="http://www.w3.org/2000/svg">

<g id="SVGRepo_bgCarrier" stroke-width="0"/>

<g id="SVGRepo_tracerCarrier" stroke-linecap="round" stroke-linejoin="round"/>

<g id="SVGRepo_iconCarrier"> <path opacity="0.4" d="M12 22.01C17.5228 22.01 22 17.5329 22 12.01C22 6.48716 17.5228 2.01001 12 2.01001C6.47715 2.01001 2 6.48716 2 12.01C2 17.5329 6.47715 22.01 12 22.01Z" fill="#fff"/> <path d="M12 6.93994C9.93 6.93994 8.25 8.61994 8.25 10.6899C8.25 12.7199 9.84 14.3699 11.95 14.4299C11.98 14.4299 12.02 14.4299 12.04 14.4299C12.06 14.4299 12.09 14.4299 12.11 14.4299C12.12 14.4299 12.13 14.4299 12.13 14.4299C14.15 14.3599 15.74 12.7199 15.75 10.6899C15.75 8.61994 14.07 6.93994 12 6.93994Z" fill="#fff"/> <path d="M18.7807 19.36C17.0007 21 14.6207 22.01 12.0007 22.01C9.3807 22.01 7.0007 21 5.2207 19.36C5.4607 18.45 6.1107 17.62 7.0607 16.98C9.7907 15.16 14.2307 15.16 16.9407 16.98C17.9007 17.62 18.5407 18.45 18.7807 19.36Z" fill="#fff"/> </g>

</svg>

<svg width="256" height="256" viewBox="2 2 20 20" fill="none" xmlns="http://www.w3.org/2000/svg"><g fill="#fff"><path opacity=".4" d="M12 22.01c5.5228 0 10-4.4771 10-10 0-5.5228-4.4772-10-10-10-5.5229 0-10 4.4772-10 10 0 5.5229 4.4771 10 10 10Z"/><path d="M12 6.94c-2.07 0-3.75 1.68-3.75 3.7499 0 2.03 1.59 3.68 3.7 3.74h.18c2.02-.07 3.61-1.71 3.62-3.74 0-2.07-1.68-3.75-3.75-3.75ZM18.7807 19.36c-1.78 1.64-4.16 2.65-6.78 2.65s-5-1.01-6.78-2.65c.24-.91.89-1.74 1.84-2.38 2.73-1.82 7.17-1.82 9.88 0 .96.64 1.6 1.47 1.84 2.38Z"/></g></svg>
